X:1
T: Peter Bailie's Wife
C:
R:Jig
Q:180
K:A
M:6/8
L:1/16
|:E2|E3FE2 E2C2E2|E3FA2 A4f2|e3dc2 B3cd2|c3BA2 F3GA2|E3FE2 E2C2E2|E3AA2 A4f2|e3dc2 B2A2B2|c2A2A2 A4:|
cd|e3fe2 e2c2e2|f4g2 a4f2|e3dc2 B3cd2|c3BA2 F4E2|e3fe2 e2c2e2|f4g2 a4f2|e3dc2 B3cd2|c2A2A2 A4cd|
e3fe2 e2c2e2|f4g2 a4f2|e3dc2 B3cd2|c3BA2 F4E2|A2c2e2 d2e2f2|c2d2e2 f2g2a2|e3dc2 B2A2B2|c2A2A2 A4||
